archdroid-icon-theme/Archdroid-Indigo/apps/scalable/empathy.svg

<svg fill="#3F51B5" height="48" viewBox="0 0 48 48" width="48" xmlns="http://www.w3.org/2000/svg"><path d="m8 4c-2.21 0-3.980469 1.79-3.980469 4l-.019531 36 8-8h28c2.21 0 4-1.79 4-4v-24c0-2.21-1.79-4-4-4zm16 4a12 12 0 0 1 12 12 12 12 0 0 1 -12 12 12 12 0 0 1 -12-12 12 12 0 0 1 12-12zm0 2a10 10 0 0 0 -10 10 10 10 0 0 0 10 10 10 10 0 0 0 10-10 10 10 0 0 0 -10-10zm-4 4a2 2 0 0 1 2 2 2 2 0 0 1 -2 2 2 2 0 0 1 -2-2 2 2 0 0 1 2-2zm8 0a2 2 0 0 1 2 2 2 2 0 0 1 -2 2 2 2 0 0 1 -2-2 2 2 0 0 1 2-2zm-10.701172 8h13.40625a7 7 0 0 1 -6.705078 5 7 7 0 0 1 -6.701172-5z" fill="#3F51B5"/></svg>

<svg fill="#3F51B5" height="48" version="1.1" viewBox="0 0 48 48" width="48" xmlns="http://www.w3.org/2000/svg"><path d="M8 4C5.79 4 4.019531 5.79 4.019531 8L4 44 12 36 40 36C42.21 36 44 34.21 44 32L44 8C44 5.79 42.21 4 40 4L8 4zM24 8A12 12 0 0 1 36 20 12 12 0 0 1  24 32 12 12 0 0 1  12 20 12 12 0 0 1  24 8zM24 10A10 10 0 0 0 14 20 10 10 0 0 0  24 30 10 10 0 0 0  34 20 10 10 0 0 0  24 10zM20 14A2 2 0 0 1 22 16 2 2 0 0 1  20 18 2 2 0 0 1  18 16 2 2 0 0 1  20 14zM28 14A2 2 0 0 1 30 16 2 2 0 0 1  28 18 2 2 0 0 1  26 16 2 2 0 0 1  28 14zM17.298828 22L30.705078 22A7 7 0 0 1 24 27 7 7 0 0 1  17.298828 22z"/></svg>
